X:1
T:This Masquerade
C:Leon Russell
L:1/4
M:C
I:linebreak $
K:Ab
"Fm" (3z F G A B |"FmM" c g f c |"Fm" A B c A |"Bb7" F4 |$"Fm" (3z F G A F |"Db7" e2 (3z f e |
"C7" c4 | z4 |$"Fm" (3z F G A B |"FmM" c g f c |"Fm" A B c A |"Bb7" F2 (3z F G |$
"Db7" A2 (3z B A |"C7" =B _B z A |"Fm" F4 |"Bb7" z4 |"Fm" F4 |"_Fine" z4 |][K:Db]$
"Ebm" z d/e/ (3f g z |"Ab7" f e d e |"Db" f3/2 A/ (3A A z |"Db6" A2 z A |$"Ebm" e e f g |
"Ab7" f e d e |"Db" f4 |"Db6" z2 z f ||$[K:C]"Dm" d e (3f e z |"G7" g f _a g |"C" g3/2 G/ (3G G z |
"Am" G2 z G |$"Gm" _B2 z G |"G7" B2 z G ||[K:Ab]"C7" c d B c |"_D.C. al Fine" A4||

